svg/LeftHanded/text.svg

<?xml version="1.0" encoding="UTF-8" standalone="no"?>
<!-- Created with Inkscape (http://www.inkscape.org/) -->

<svg
   xmlns:dc="http://purl.org/dc/elements/1.1/"
   xmlns:cc="http://creativecommons.org/ns#"
   xmlns:rdf="http://www.w3.org/1999/02/22-rdf-syntax-ns#"
   xmlns:svg="http://www.w3.org/2000/svg"
   xmlns="http://www.w3.org/2000/svg"
   xmlns:xlink="http://www.w3.org/1999/xlink"
   version="1.0"
   width="500"
   height="500"
   viewBox="0 0 1000 1000"
   id="page"
   xml:space="preserve"><metadata
     id="metadata14"><rdf:RDF><cc:Work
         rdf:about=""><dc:format>image/svg+xml</dc:format><dc:type
           rdf:resource="http://purl.org/dc/dcmitype/StillImage" /><dc:title></dc:title></cc:Work></rdf:RDF></metadata><defs
     id="defs38"><linearGradient
       id="linearGradient2312"><stop
         id="stop2314"
         style="stop-color:#999999;stop-opacity:1"
         offset="0" /><stop
         id="stop2316"
         style="stop-color:#555555;stop-opacity:1"
         offset="1" /></linearGradient><linearGradient
       x1="10"
       y1="347.785"
       x2="10"
       y2="493.785"
       id="linearGradient1324"
       xlink:href="#linearGradient2312"
       gradientUnits="userSpaceOnUse"
       gradientTransform="translate(417,201)" /><linearGradient
       x1="10"
       y1="-84.214996"
       x2="10"
       y2="61.785"
       id="linearGradient1330"
       xlink:href="#linearGradient2312"
       gradientUnits="userSpaceOnUse"
       gradientTransform="translate(417,201)" /><linearGradient
       x1="10"
       y1="-84.214996"
       x2="10"
       y2="61.785"
       id="linearGradient1330-2"
       xlink:href="#linearGradient2312-6"
       gradientUnits="userSpaceOnUse"
       gradientTransform="translate(114.69141,113.54274)" /><linearGradient
       id="linearGradient2312-6"><stop
         id="stop2314-5"
         style="stop-color:#999999;stop-opacity:1"
         offset="0" /><stop
         id="stop2316-5"
         style="stop-color:#555555;stop-opacity:1"
         offset="1" /></linearGradient><linearGradient
       x1="10"
       y1="347.785"
       x2="10"
       y2="493.785"
       id="linearGradient1324-0"
       xlink:href="#linearGradient2312-6"
       gradientUnits="userSpaceOnUse"
       gradientTransform="translate(417,201)" /><linearGradient
       id="linearGradient3011"><stop
         id="stop3013"
         style="stop-color:#999999;stop-opacity:1"
         offset="0" /><stop
         id="stop3015"
         style="stop-color:#555555;stop-opacity:1"
         offset="1" /></linearGradient><filter
       x="-0.65142858"
       y="-0.14709677"
       width="2.3028572"
       height="1.2941935"
       color-interpolation-filters="sRGB"
       id="filter3822"><feGaussianBlur
         stdDeviation="34.2"
         id="feGaussianBlur3824" /></filter><linearGradient
       x1="10"
       y1="347.785"
       x2="10"
       y2="493.785"
       id="linearGradient1324-5"
       xlink:href="#linearGradient2312-9"
       gradientUnits="userSpaceOnUse"
       gradientTransform="translate(417,201)" /><linearGradient
       id="linearGradient2312-9"><stop
         id="stop2314-8"
         style="stop-color:#999999;stop-opacity:1"
         offset="0" /><stop
         id="stop2316-8"
         style="stop-color:#555555;stop-opacity:1"
         offset="1" /></linearGradient><linearGradient
       x1="10"
       y1="347.785"
       x2="10"
       y2="493.785"
       id="linearGradient3856"
       xlink:href="#linearGradient2312-9"
       gradientUnits="userSpaceOnUse"
       gradientTransform="translate(417,201)" /><filter
       x="-0.23999999"
       y="-0.23999999"
       width="1.48"
       height="1.48"
       color-interpolation-filters="sRGB"
       id="filter3875"><feGaussianBlur
         stdDeviation="12.6"
         id="feGaussianBlur3877" /></filter><filter
       x="-0.23999999"
       y="-0.23999999"
       width="1.48"
       height="1.48"
       color-interpolation-filters="sRGB"
       id="filter3891"><feGaussianBlur
         stdDeviation="12.6"
         id="feGaussianBlur3893" /></filter><filter
       x="-0.23999999"
       y="-0.23999999"
       width="1.48"
       height="1.48"
       color-interpolation-filters="sRGB"
       id="filter3895"><feGaussianBlur
         stdDeviation="12.6"
         id="feGaussianBlur3897" /></filter><linearGradient
       x1="10"
       y1="-84.214996"
       x2="10"
       y2="61.785"
       id="linearGradient3903"
       xlink:href="#linearGradient2312"
       gradientUnits="userSpaceOnUse"
       gradientTransform="translate(417,201)" /><linearGradient
       x1="10"
       y1="347.785"
       x2="10"
       y2="493.785"
       id="linearGradient3905"
       xlink:href="#linearGradient2312"
       gradientUnits="userSpaceOnUse"
       gradientTransform="translate(417,201)" /><linearGradient
       x1="10"
       y1="347.785"
       x2="10"
       y2="493.785"
       id="linearGradient3908"
       xlink:href="#linearGradient2312"
       gradientUnits="userSpaceOnUse"
       gradientTransform="translate(417,201)" /><linearGradient
       x1="10"
       y1="-84.214996"
       x2="10"
       y2="61.785"
       id="linearGradient3911"
       xlink:href="#linearGradient2312"
       gradientUnits="userSpaceOnUse"
       gradientTransform="translate(417,201)" /><linearGradient
       x1="10"
       y1="347.785"
       x2="10"
       y2="493.785"
       id="linearGradient3908-5"
       xlink:href="#linearGradient2312-7"
       gradientUnits="userSpaceOnUse"
       gradientTransform="translate(417,201)" /><linearGradient
       id="linearGradient2312-7"><stop
         id="stop2314-4"
         style="stop-color:#999999;stop-opacity:1"
         offset="0" /><stop
         id="stop2316-0"
         style="stop-color:#555555;stop-opacity:1"
         offset="1" /></linearGradient><linearGradient
       x1="10"
       y1="-84.214996"
       x2="10"
       y2="61.785"
       id="linearGradient3911-5"
       xlink:href="#linearGradient2312-7"
       gradientUnits="userSpaceOnUse"
       gradientTransform="translate(417,201)" /><linearGradient
       id="linearGradient3929"><stop
         id="stop3931"
         style="stop-color:#999999;stop-opacity:1"
         offset="0" /><stop
         id="stop3933"
         style="stop-color:#555555;stop-opacity:1"
         offset="1" /></linearGradient><filter
       x="-0.65142858"
       y="-0.14709677"
       width="2.3028572"
       height="1.2941935"
       color-interpolation-filters="sRGB"
       id="filter3969"><feGaussianBlur
         stdDeviation="34.2"
         id="feGaussianBlur3971" /></filter><linearGradient
       x1="10"
       y1="-84.214996"
       x2="10"
       y2="61.785"
       id="linearGradient3979"
       xlink:href="#linearGradient2312"
       gradientUnits="userSpaceOnUse"
       gradientTransform="translate(417,201)" /><linearGradient
       x1="10"
       y1="347.785"
       x2="10"
       y2="493.785"
       id="linearGradient3981"
       xlink:href="#linearGradient2312"
       gradientUnits="userSpaceOnUse"
       gradientTransform="translate(417,201)" /><linearGradient
       x1="10"
       y1="347.785"
       x2="10"
       y2="493.785"
       id="linearGradient3984"
       xlink:href="#linearGradient2312"
       gradientUnits="userSpaceOnUse"
       gradientTransform="translate(417,201)" /><linearGradient
       x1="10"
       y1="-84.214996"
       x2="10"
       y2="61.785"
       id="linearGradient3987"
       xlink:href="#linearGradient2312"
       gradientUnits="userSpaceOnUse"
       gradientTransform="translate(417,201)" /><linearGradient
       x1="10"
       y1="-84.214996"
       x2="10"
       y2="61.785"
       id="linearGradient3987-0"
       xlink:href="#linearGradient2312-60"
       gradientUnits="userSpaceOnUse"
       gradientTransform="translate(161.64251,-27.465098)" /><linearGradient
       id="linearGradient2312-60"><stop
         id="stop2314-53"
         style="stop-color:#999999;stop-opacity:1"
         offset="0" /><stop
         id="stop2316-3"
         style="stop-color:#555555;stop-opacity:1"
         offset="1" /></linearGradient><linearGradient
       x1="10"
       y1="347.785"
       x2="10"
       y2="493.785"
       id="linearGradient3984-3"
       xlink:href="#linearGradient2312-60"
       gradientUnits="userSpaceOnUse"
       gradientTransform="translate(417,201)" /><linearGradient
       id="linearGradient3826"><stop
         id="stop3828"
         style="stop-color:#999999;stop-opacity:1"
         offset="0" /><stop
         id="stop3830"
         style="stop-color:#555555;stop-opacity:1"
         offset="1" /></linearGradient><filter
       x="-0.65142858"
       y="-0.14709677"
       width="2.3028572"
       height="1.2941935"
       color-interpolation-filters="sRGB"
       id="filter3866"><feGaussianBlur
         id="feGaussianBlur3868"
         stdDeviation="34.2" /></filter><linearGradient
       x1="10"
       y1="-84.214996"
       x2="10"
       y2="61.785"
       id="linearGradient3872"
       xlink:href="#linearGradient2312"
       gradientUnits="userSpaceOnUse"
       gradientTransform="translate(417,201)" /><linearGradient
       x1="10"
       y1="347.785"
       x2="10"
       y2="493.785"
       id="linearGradient3874"
       xlink:href="#linearGradient2312"
       gradientUnits="userSpaceOnUse"
       gradientTransform="translate(417,201)" /><linearGradient
       x1="10"
       y1="347.785"
       x2="10"
       y2="493.785"
       id="linearGradient3877"
       xlink:href="#linearGradient2312"
       gradientUnits="userSpaceOnUse"
       gradientTransform="translate(417,201)" /><linearGradient
       x1="10"
       y1="-84.214996"
       x2="10"
       y2="61.785"
       id="linearGradient3880"
       xlink:href="#linearGradient2312"
       gradientUnits="userSpaceOnUse"
       gradientTransform="translate(417,201)" /><linearGradient
       id="linearGradient2312-5"><stop
         id="stop2314-3"
         style="stop-color:#999999;stop-opacity:1"
         offset="0" /><stop
         id="stop2316-2"
         style="stop-color:#555555;stop-opacity:1"
         offset="1" /></linearGradient><linearGradient
       x1="10"
       y1="347.785"
       x2="10"
       y2="493.785"
       id="linearGradient3877-8"
       xlink:href="#linearGradient2312-5"
       gradientUnits="userSpaceOnUse"
       gradientTransform="translate(417,201)" /><linearGradient
       id="linearGradient3067"><stop
         id="stop3069"
         style="stop-color:#999999;stop-opacity:1"
         offset="0" /><stop
         id="stop3071"
         style="stop-color:#555555;stop-opacity:1"
         offset="1" /></linearGradient><filter
       x="-0.65142858"
       y="-0.65142858"
       width="2.3028572"
       height="2.3028572"
       color-interpolation-filters="sRGB"
       id="filter3890"><feGaussianBlur
         id="feGaussianBlur3892"
         stdDeviation="34.200001" /></filter><filter
       x="-0.65142858"
       y="-0.65142858"
       width="2.3028572"
       height="2.3028572"
       color-interpolation-filters="sRGB"
       id="filter3894"><feGaussianBlur
         id="feGaussianBlur3896"
         stdDeviation="34.200001" /></filter><linearGradient
       x1="10"
       y1="-84.214996"
       x2="10"
       y2="61.785"
       id="linearGradient3898"
       xlink:href="#linearGradient2312"
       gradientUnits="userSpaceOnUse"
       gradientTransform="translate(417,201)" /><linearGradient
       x1="10"
       y1="347.785"
       x2="10"
       y2="493.785"
       id="linearGradient3900"
       xlink:href="#linearGradient2312"
       gradientUnits="userSpaceOnUse"
       gradientTransform="translate(417,201)" /><linearGradient
       x1="10"
       y1="347.785"
       x2="10"
       y2="493.785"
       id="linearGradient3904"
       xlink:href="#linearGradient2312"
       gradientUnits="userSpaceOnUse"
       gradientTransform="translate(417,201)" /><linearGradient
       x1="10"
       y1="-84.214996"
       x2="10"
       y2="61.785"
       id="linearGradient3907"
       xlink:href="#linearGradient2312"
       gradientUnits="userSpaceOnUse"
       gradientTransform="translate(417,201)" /></defs><g
     id="g3909"><path
       d="m 838.42373,1258.3729 c 0,34.793 -28.207,63 -63,63 -34.794,0 -63,-28.207 -63,-63 0,-34.794 28.206,-63 63,-63 34.793,0 63,28.206 63,63 z"
       transform="matrix(1.2,0,0,1.2,-430.50848,-768.26248)"
       id="path1404-3"
       style="opacity:0.15;fill:#111111;fill-opacity:1;stroke:none;filter:url(#filter3890)" /><path
       d="m 838.42373,826.37288 c 0,34.793 -28.206,63 -63,63 -34.794,0 -63,-28.206 -63,-63 0,-34.794 28.206,-63 63,-63 34.794,0 63,28.207 63,63 z"
       transform="matrix(1.2,0,0,1.2,-430.50848,-681.86246)"
       id="path1398-6"
       style="opacity:0.15;fill:#111111;fill-opacity:1;stroke:none;filter:url(#filter3894)" /></g><g
     id="g3913"><path
       d="m 500.00005,253.98727 0,301.59067"
       id="path1406"
       style="opacity:0.75;fill:none;stroke:#010101;stroke-width:20;stroke-linecap:round;stroke-linejoin:round;stroke-miterlimit:3.13260007;stroke-opacity:1;stroke-dasharray:none" /><path
       d="m 563,189.785 c 0,34.793 -28.206,63 -63,63 -34.794,0 -63,-28.206 -63,-63 0,-34.794 28.206,-63 63,-63 34.794,0 63,28.207 63,63 z"
       id="path1398"
       style="opacity:0.75;fill:url(#linearGradient3907);fill-opacity:1;stroke:#000000;stroke-width:20;stroke-linecap:round;stroke-linejoin:round;stroke-miterlimit:3.13260007" /><path
       d="m 563,621.785 c 0,34.793 -28.207,63 -63,63 -34.794,0 -63,-28.207 -63,-63 0,-34.794 28.206,-63 63,-63 34.793,0 63,28.206 63,63 z"
       id="path1404"
       style="opacity:0.75;fill:url(#linearGradient3904);fill-opacity:1;stroke:#000000;stroke-width:20;stroke-linecap:round;stroke-linejoin:round;stroke-miterlimit:3.13260007" /></g></svg>

<?xml version="1.0" encoding="UTF-8" standalone="no"?>
<!-- Created with Inkscape (http://www.inkscape.org/) -->
<svg
   xmlns:svg="http://www.w3.org/2000/svg"
   xmlns="http://www.w3.org/2000/svg"
   xmlns:xlink="http://www.w3.org/1999/xlink"
   version="1.0"
   width="500"
   height="500"
   viewBox="0 0 1000 1000"
   id="page"
   xml:space="preserve"><defs
     id="defs38"><linearGradient
       id="linearGradient2312"><stop
         id="stop2314"
         style="stop-color:#999999;stop-opacity:1"
         offset="0" /><stop
         id="stop2316"
         style="stop-color:#555555;stop-opacity:1"
         offset="1" /></linearGradient><linearGradient
       x1="10"
       y1="347.785"
       x2="10"
       y2="493.785"
       id="linearGradient1324"
       xlink:href="#linearGradient2312"
       gradientUnits="userSpaceOnUse"
       gradientTransform="translate(417,201)" /><linearGradient
       x1="10"
       y1="-84.214996"
       x2="10"
       y2="61.785"
       id="linearGradient1330"
       xlink:href="#linearGradient2312"
       gradientUnits="userSpaceOnUse"
       gradientTransform="translate(417,201)" /></defs><path
     d="M 500.00005,253.98727 L 500.00005,555.57794"
     id="path1406"
     style="fill:none;stroke:#010101;stroke-width:20;stroke-linecap:round;stroke-linejoin:round;stroke-miterlimit:3.13260007;stroke-dasharray:none;stroke-opacity:1" /><path
     d="M 563,189.785 C 563,224.578 534.794,252.785 500,252.785 C 465.206,252.785 437,224.579 437,189.785 C 437,154.991 465.206,126.785 500,126.785 C 534.794,126.785 563,154.992 563,189.785 z"
     id="path1398"
     style="fill:url(#linearGradient1330);fill-opacity:1;stroke:#000000;stroke-width:20;stroke-linecap:round;stroke-linejoin:round;stroke-miterlimit:3.13260007" /><path
     d="M 563,621.785 C 563,656.578 534.793,684.785 500,684.785 C 465.206,684.785 437,656.578 437,621.785 C 437,586.991 465.206,558.785 500,558.785 C 534.793,558.785 563,586.991 563,621.785 z"
     id="path1404"
     style="fill:url(#linearGradient1324);fill-opacity:1;stroke:#000000;stroke-width:20;stroke-linecap:round;stroke-linejoin:round;stroke-miterlimit:3.13260007" /></svg>
